X:1
T:Pater noster
T:Joachim Kelecom (°1977)
T:for Reina
T:Pater noster
T:©
T:©
T:©
T:©
C:Joachim Kelecom
C:(°1977)
Z:©
%%score [ 1 2 3 4 ]
L:1/8
Q:1/4=120
M:4/4
K:C
V:1 treble nm="Soprano" snm="S"
V:2 treble nm="Alto" snm="A"
V:3 treble-8 nm="Tenor" snm="T"
V:4 bass nm="Bass" snm="B"
V:1
 !stemless!A2 !stemless!A2 !stemless!A4 !stemless!A4 | %1
w: Pa- ter nos- ter|
 !stemless!A2 !stemless!A2 !stemless!A2 !stemless!B4 !stemless!B2 | %2
w: qui est in cae- lis|
 !stemless!B2 !stemless!B2 !stemless!B2 !stemless!c2 !stemless!c2 !stemless!c2 !stemless!c2 !stemless!d4 !stemless!d2 | %3
w: sanc- ti- fi- ce- tur no- men tu- um|
 !stemless!d2 !stemless!e2 !stemless!d2 !stemless!c2 !stemless!B2 !stemless!c2 !stemless!A4 !stemless!A2 | %4
w: ad- ve- ni- at reg- num tu- um|
 !stemless!A2 !stemless!B2 !stemless!c2 !stemless!d2 !stemless!c2 !stemless!B2 !stemless!A2 !stemless!G2 !stemless!A2 !stemless!B2 !stemless!c2 !stemless!B2 !stemless!c2 !stemless!d2 !stemless!e4 !stemless!e2 | %5
w: Fi- at vo- lun- tas tu- a sic- ut in cae- lo et in ter- ra.|
 !stemless!d2 !stemless!d2 !stemless!d2 !stemless!d2 !stemless!d2 !stemless!c2 !stemless!B2 !stemless!A2 !stemless!A2 !stemless!A2 !stemless!B2 !stemless!G2 !stemless!A4 !stemless!A2 !stemless!A4 | %6
w: Pa- nem nos- trum quo- ti- di- a- num da no- bis ho- di- e.|
 !stemless!A2 !stemless!A2 !stemless!B2 !stemless!G2 !stemless!A2 !stemless!A2 !stemless!A2 !stemless!B2 !stemless!c2 !stemless!d4 !stemless!e4 | %7
w: Et di- mit- te no- bis de- bi- ta nos- tra,|
 !stemless!e2 !stemless!d2 !stemless!e2 !stemless!c2 !stemless!B2 !stemless!c2 !stemless!A2 !stemless!A2 !stemless!A2 !stemless!A2 !stemless!B2 !stemless!G2 !stemless!B2 !stemless!A4 !stemless!A4 | %8
w: si- cut et nos di- mit- ti- mus de- bi- to- ri- bus nos- tris.|
 !stemless!c2 !stemless!c2 !stemless!c2 !stemless!c2 !stemless!B2 !stemless!B2 !stemless!B2 !stemless!A2 !stemless!G2 !stemless!B2 !stemless!d4 !stemless!d2 | %9
w: Et ne nos in- du- cas in ten- ta- ti- o- nem,|
 !stemless!d2 !stemless!c2 !stemless!B2 !stemless!A2 !stemless!G2 !stemless!B2 !stemless!A4 !stemless!A4 || %10
w: sed li- be- ra nos a ma- lo.|
 !stemless!A2 !stemless!A2 !stemless!B2 !stemless!B2 !stemless!G2 !stemless!A2 !stemless!A2 !stemless!A2 !stemless!B2 !stemless!c2 !stemless!d2 !stemless!e2 !stemless!c4 !stemless!c2 !stemless!c4 | %11
w: Qui- a tu- um est reg- num et po- tes- tas et glo- ri- a,|
 !stemless!c2 !stemless!d2 !stemless!c2 !stemless!B2 !stemless!G2 !stemless!B2 !stemless!A4 !stemless!A4 || %12
w: in sae- cu- la sae- cu- lo- rum.|
[M:3/4] (!stemless!A2 !stemless!B2 !stemless!c2 | !stemless!B2 !stemless!c2 !stemless!d2 | %14
w: A- * *||
 !stemless!c2 !stemless!d2 !stemless!e2 | !stemless!c6-) | !stemless!c6 |] %17
w: ||men.|
V:2
 !stemless!E2 !stemless!E2 !stemless!E4 !stemless!E4 | %1
w: Pa- ter nos- ter|
 !stemless!E2 !stemless!E2 !stemless!E2 !stemless!E4 !stemless!E2 | %2
w: qui est in cae- lis|
 !stemless!G2 !stemless!G2 !stemless!G2 !stemless!G2 !stemless!G2 !stemless!G2 !stemless!G2 !stemless!B4 !stemless!B2 | %3
w: sanc- ti- fi- ce- tur no- men tu- um|
 !stemless!B2 !stemless!c2 !stemless!B2 !stemless!A2 !stemless!G2 !stemless!F2 !stemless!E4 !stemless!E2 | %4
w: ad- ve- ni- at reg- num tu- um|
 !stemless!E2 !stemless!E2 !stemless!E2 !stemless!G2 !stemless!G2 !stemless!G2 !stemless!F2 !stemless!E2 !stemless!F2 !stemless!G2 !stemless!A2 !stemless!G2 !stemless!A2 !stemless!B2 !stemless!B4 !stemless!B2 | %5
w: Fi- at vo- lun- tas tu- a sic- ut in cae- lo et in ter- ra.|
 !stemless!B2 !stemless!B2 !stemless!B2 !stemless!B2 !stemless!B2 !stemless!A2 !stemless!G2 !stemless!F2 !stemless!F2 !stemless!F2 !stemless!E2 !stemless!E2 !stemless!E4 !stemless!E2 !stemless!E4 | %6
w: Pa- nem nos- trum quo- ti- di- a- num da no- bis ho- di- e.|
 !stemless!E2 !stemless!E2 !stemless!E2 !stemless!E2 !stemless!F2 !stemless!F2 !stemless!F2 !stemless!G2 !stemless!A2 !stemless!B4 !stemless!B4 | %7
w: Et di- mit- te no- bis de- bi- ta nos- tra,|
 !stemless!B2 !stemless!B2 !stemless!B2 !stemless!A2 !stemless!G2 !stemless!A2 !stemless!E2 !stemless!E2 !stemless!E2 !stemless!E2 !stemless!D2 !stemless!D2 !stemless!D2 !stemless!E4 !stemless!E4 | %8
w: si- cut et nos di- mit- ti- mus de- bi- to- ri- bus nos- tris.|
 !stemless!G2 !stemless!G2 !stemless!G2 !stemless!G2 !stemless!G2 !stemless!G2 !stemless!G2 !stemless!F2 !stemless!G2 !stemless!G2 !stemless!B4 !stemless!B2 | %9
w: Et ne nos in- du- cas in ten- ta- ti- o- nem,|
 !stemless!B2 !stemless!A2 !stemless!G2 !stemless!F2 !stemless!E2 !stemless!G2 !stemless!E4 !stemless!E4 || %10
w: sed li- be- ra nos a ma- lo.|
 !stemless!F2 !stemless!F2 !stemless!G2 !stemless!G2 !stemless!E2 !stemless!F2 !stemless!F2 !stemless!F2 !stemless!G2 !stemless!A2 !stemless!B2 !stemless!c2 !stemless!B4 !stemless!B2 !stemless!A4 | %11
w: Qui- a tu- um est reg- num et po- tes- tas et glo- ri- a,|
 !stemless!A2 !stemless!B2 !stemless!A2 !stemless!G2 !stemless!E2 !stemless!G2 !stemless!E4 !stemless!E4 || %12
w: in sae- cu- la sae- cu- lo- rum.|
[M:3/4] (!stemless!A6 | !stemless!G2 !stemless!A2 !stemless!B2 | %14
w: A-||
 !stemless!A2 !stemless!B2 !stemless!c2 | !stemless!B4) !stemless!A2 | !stemless!A6 |] %17
w: ||men.|
V:3
 !stemless!c2 !stemless!c2 !stemless!c4 !stemless!c4 | %1
w: Pa- ter nos- ter|
 !stemless!c2 !stemless!c2 !stemless!c2 !stemless!G4 !stemless!G2 | %2
w: qui est in cae- lis|
 !stemless!E2 !stemless!E2 !stemless!E2 !stemless!A2 !stemless!A2 !stemless!A2 !stemless!A2 !stemless!G4 !stemless!G2 | %3
w: sanc- ti- fi- ce- tur no- men tu- um|
 !stemless!G2 !stemless!G2 !stemless!G2 !stemless!G2 !stemless!G2 !stemless!A2 !stemless!c4 !stemless!c2 | %4
w: ad- ve- ni- at reg- num tu- um|
 !stemless!c2 !stemless!d2 !stemless!e2 !stemless!e2 !stemless!e2 !stemless!d2 !stemless!c2 !stemless!B2 !stemless!c2 !stemless!c2 !stemless!c2 !stemless!d2 !stemless!d2 !stemless!d2 !stemless!d4 !stemless!d2 | %5
w: Fi- at vo- lun- tas tu- a sic- ut in cae- lo et in ter- ra.|
 !stemless!G2 !stemless!G2 !stemless!G2 !stemless!G2 !stemless!G2 !stemless!A2 !stemless!B2 !stemless!c2 !stemless!d2 !stemless!d2 !stemless!e2 !stemless!d2 !stemless!c4 !stemless!c2 !stemless!c4 | %6
w: Pa- nem nos- trum quo- ti- di- a- num da no- bis ho- di- e.|
 !stemless!c2 !stemless!c2 !stemless!B2 !stemless!B2 !stemless!A2 !stemless!A2 !stemless!A2 !stemless!A2 !stemless!A2 !stemless!G4 !stemless!G4 | %7
w: Et di- mit- te no- bis de- bi- ta nos- tra,|
 !stemless!G2 !stemless!G2 !stemless!G2 !stemless!F2 !stemless!F2 !stemless!F2 !stemless!F2 !stemless!F2 !stemless!F2 !stemless!F2 !stemless!G2 !stemless!G2 !stemless!G2 !stemless!c4 !stemless!c4 | %8
w: si- cut et nos di- mit- ti- mus de- bi- to- ri- bus nos- tris.|
 !stemless!e2 !stemless!e2 !stemless!e2 !stemless!e2 !stemless!d2 !stemless!d2 !stemless!d2 !stemless!c2 !stemless!B2 !stemless!B2 !stemless!G4 !stemless!G2 | %9
w: Et ne nos in- du- cas in ten- ta- ti- o- nem,|
 !stemless!G2 !stemless!G2 !stemless!G2 !stemless!G2 !stemless!G2 !stemless!G2 !stemless!c4 !stemless!c4 || %10
w: sed li- be- ra nos a ma- lo.|
 !stemless!c2 !stemless!c2 !stemless!c2 !stemless!c2 !stemless!B2 !stemless!d2 !stemless!d2 !stemless!d2 !stemless!c2 !stemless!c2 !stemless!B2 !stemless!d2 !stemless!e4 !stemless!e2 !stemless!e4 | %11
w: Qui- a tu- um est reg- num et po- tes- tas et glo- ri- a,|
 !stemless!e2 !stemless!e2 !stemless!e2 !stemless!e2 !stemless!d2 !stemless!d2 !stemless!c4 !stemless!c4 || %12
w: in sae- cu- la sae- cu- lo- rum.|
[M:3/4] (!stemless!e6 | !stemless!e6 | !stemless!e4 !stemless!f2 | !stemless!e6) | !stemless!e6 |] %17
w: A-||||men.|
V:4
 !stemless!A,2 !stemless!A,2 !stemless!A,4 !stemless!A,4 | %1
w: Pa- ter nos- ter|
 !stemless!F,2 !stemless!F,2 !stemless!F,2 !stemless!D,4 !stemless!D,2 | %2
w: qui est in cae- lis|
 !stemless!C,2 !stemless!C,2 !stemless!C,2 !stemless!C,2 !stemless!C,2 !stemless!C,2 !stemless!C,2 !stemless!G,,4 !stemless!G,,2 | %3
w: sanc- ti- fi- ce- tur no- men tu- um|
 !stemless!G,,2 !stemless!G,,2 !stemless!G,,2 !stemless!G,,2 !stemless!G,,2 !stemless!F,,2 !stemless!A,,4 !stemless!A,,2 | %4
w: ad- ve- ni- at reg- num tu- um|
 !stemless!A,2 !stemless!A,2 !stemless!A,2 !stemless!A,2 !stemless!A,2 !stemless!A,2 !stemless!A,2 !stemless!E,2 !stemless!E,2 !stemless!E,2 !stemless!E,2 !stemless!E,2 !stemless!E,2 !stemless!E,2 !stemless!C,4 !stemless!C,2 | %5
w: Fi- at vo- lun- tas tu- a sic- ut in cae- lo et in ter- ra.|
 !stemless!E,2 !stemless!E,2 !stemless!E,2 !stemless!E,2 !stemless!E,2 !stemless!E,2 !stemless!D,2 !stemless!C,2 !stemless!C,2 !stemless!C,2 !stemless!B,,2 !stemless!B,,2 !stemless!A,,4 !stemless!A,,2 !stemless!A,,4 | %6
w: Pa- nem nos- trum quo- ti- di- a- num da no- bis ho- di- e.|
 !stemless!A,,2 !stemless!A,,2 !stemless!C,2 !stemless!C,2 !stemless!D,2 !stemless!D,2 !stemless!D,2 !stemless!C,2 !stemless!B,,2 !stemless!E,4 !stemless!C,4 | %7
w: Et di- mit- te no- bis de- bi- ta nos- tra,|
 !stemless!C,2 !stemless!C,2 !stemless!C,2 !stemless!D,2 !stemless!D,2 !stemless!D,2 !stemless!C,2 !stemless!C,2 !stemless!C,2 !stemless!C,2 !stemless!E,2 !stemless!E,2 !stemless!E,2 !stemless!F,4 !stemless!F,4 | %8
w: si- cut et nos di- mit- ti- mus de- bi- to- ri- bus nos- tris.|
 !stemless!A,2 !stemless!A,2 !stemless!A,2 !stemless!A,2 !stemless!E,2 !stemless!E,2 !stemless!E,2 !stemless!E,2 !stemless!D,2 !stemless!D,2 !stemless!E,4 !stemless!E,2 | %9
w: Et ne nos in- du- cas in ten- ta- ti- o- nem,|
 !stemless!E,2 !stemless!E,2 !stemless!E,2 !stemless!E,2 !stemless!C,2 !stemless!C,2 !stemless!F,4 !stemless!F,4 || %10
w: sed li- be- ra nos a ma- lo.|
 !stemless!E,2 !stemless!E,2 !stemless!E,2 !stemless!E,2 !stemless!D,2 !stemless!C,2 !stemless!C,2 !stemless!C,2 !stemless!D,2 !stemless!C,2 !stemless!E,2 !stemless!G,2 !stemless!A,4 !stemless!A,2 !stemless!A,4 | %11
w: Qui- a tu- um est reg- num et po- tes- tas et glo- ri- a,|
 !stemless!A,2 !stemless!E,2 !stemless!E,2 !stemless!E,2 !stemless!E,2 !stemless!E,2 !stemless!A,4 !stemless!A,4 || %12
w: in sae- cu- la sae- cu- lo- rum.|
[M:3/4] (!stemless!F,6 | !stemless!E,6 | !stemless!F,6 | !stemless!A,6) | !stemless!A,6 |] %17
w: A-||||men.|

